assets/img/another/icon-5.svg

<svg width="70" height="84" viewBox="0 0 70 84" fill="none" xmlns="http://www.w3.org/2000/svg">
<g clip-path="url(#clip0_192_21737)">
<path d="M9.0073 56.0788C6.40734 54.8812 0.724372 56.1902 0.12766 54.2963C-0.937897 50.9402 5.02922 42.5848 6.40734 35.3295C7.68601 28.5894 5.01502 23.7572 9.0073 15.5967C12.9996 7.42232 24.7491 -0.640681 37.5926 0.0416799C50.4362 0.724041 66.6753 8.27179 69.5594 27.0576C71.6194 40.4681 66.2917 51.8315 61.0775 56.0788C55.8776 60.3262 51.9848 65.5344 53.1924 81.173C53.1924 84.919 28.2726 84.3063 27.0649 82.9555C25.8573 81.5908 28.1021 70.7008 26.3688 70.5337C24.6355 70.3666 11.4368 73.0821 12.1329 68.4866C12.8291 63.8912 12.275 60.1034 9.50456 59.8248C7.79967 59.6577 9.0073 56.0788 9.0073 56.0788Z" fill="#8ABC36"/>
<path d="M38.729 43.8799C38.729 43.8799 47.6512 44.7294 51.0752 33.5888C54.4992 22.4482 56.7724 19.8719 56.7724 19.8719C56.7724 19.8719 56.6019 19.0364 54.485 20.1365C52.3681 21.2227 38.6437 24.8295 37.294 31.6531C35.9443 38.4767 37.4645 42.3898 38.729 43.8799Z" fill="white"/>
<path d="M37.237 46.4839C37.0665 46.5396 36.9102 46.3865 36.7965 46.2611C36.6687 46.1358 36.4271 46.0522 36.3419 46.2054C36.3135 46.2472 36.3135 46.3029 36.3135 46.3586C36.3419 47.8208 36.3561 49.2691 36.3845 50.7313C36.4129 52.1656 36.4271 53.6139 36.6545 55.0483C36.6829 55.2154 36.7255 55.3964 36.8676 55.4939C36.9954 55.5774 37.1659 55.5635 37.308 55.5357C37.6348 55.466 37.9473 55.3686 38.2599 55.2293C38.4304 55.1597 38.5867 55.0622 38.6719 54.909C38.7572 54.7558 38.7429 54.5748 38.7429 54.4077C38.6293 52.3188 38.6151 50.23 38.7003 48.155C38.8566 44.5483 40.1495 41.1365 41.5418 37.7943C43.0336 34.2014 44.8379 30.5251 47.5373 27.6424C47.9067 27.2386 48.8586 26.5144 48.4608 26.1524C48.063 25.7903 46.9264 26.6955 46.557 27.0854C40.4052 33.6583 37.0665 46.3447 36.9102 46.9296C36.8818 47.0549 36.8676 47.1802 36.8818 47.2916C36.9244 47.6676 37.2085 48.0158 37.6064 48.1133C38.132 48.2525 38.6861 47.9461 38.8282 47.4309C38.8424 47.403 38.6151 46.665 38.9134 45.4674C38.9134 45.4534 38.9276 45.4395 38.9276 45.4117L37.237 46.4839Z" fill="#006C2B"/>
<path d="M35.8021 45.3141C35.8021 45.3141 30.2896 47.4866 25.9706 41.025C21.6657 34.5635 19.7335 33.338 19.7335 33.338C19.7335 33.338 19.6909 32.781 21.2395 33.0874C22.7881 33.3937 32.2218 33.157 34.3814 37.2651C36.5551 41.3732 36.3278 44.1444 35.8021 45.3141Z" fill="white"/>
<path d="M37.6353 47.1524C37.678 47.4031 37.5643 47.6677 37.337 47.8069C37.0244 47.988 36.6266 47.9044 36.4277 47.5981C36.4135 47.5841 36.4135 47.0689 36.0015 46.3587C34.5807 44.0052 30.8726 38.8109 27.1076 36.5828C26.7951 36.4018 26.0421 36.1093 26.241 35.803C26.4257 35.4966 27.3207 35.8726 27.6333 36.0536C32.8048 39.1034 37.3512 46.5815 37.5643 46.9157C37.5927 46.9993 37.6211 47.0828 37.6353 47.1524Z" fill="#006C2B"/>
</g>
<defs>
<clipPath id="clip0_192_21737">
<rect width="70" height="84" fill="white"/>
</clipPath>
</defs>
</svg>

<svg width="70" height="84" fill="none" xmlns="http://www.w3.org/2000/svg"><g clip-path="url(#clip0_192_21737)"><path d="M9.007 56.079c-2.6-1.198-8.283.111-8.88-1.783C-.937 50.94 5.03 42.585 6.408 35.33c1.279-6.74-1.392-11.573 2.6-19.733C13 7.422 24.75-.641 37.593.042c12.843.682 29.082 8.23 31.966 27.016 2.06 13.41-3.267 24.773-8.481 29.02-5.2 4.248-9.093 9.456-7.886 25.095 0 3.746-24.92 3.133-26.127 1.782-1.208-1.364 1.037-12.254-.696-12.421-1.733-.167-14.932 2.548-14.236-2.047.696-4.596.142-8.384-2.628-8.662-1.705-.167-.498-3.746-.498-3.746z" fill="#8ABC36"/><path d="M38.729 43.88s8.922.85 12.346-10.291c3.424-11.14 5.697-13.717 5.697-13.717s-.17-.836-2.287.265c-2.117 1.086-15.841 4.692-17.191 11.516-1.35 6.824.17 10.737 1.435 12.227z" fill="#fff"/><path d="M37.237 46.484c-.17.056-.327-.098-.44-.223-.128-.125-.37-.209-.455-.056-.029.042-.029.098-.029.154.029 1.462.043 2.91.072 4.372.028 1.435.042 2.883.27 4.317.028.167.07.348.213.446.127.083.298.07.44.042.327-.07.64-.167.952-.307.17-.07.327-.167.412-.32.085-.153.07-.334.07-.501a65.627 65.627 0 01-.042-6.253c.157-3.607 1.45-7.019 2.842-10.36 1.492-3.594 3.296-7.27 5.995-10.153.37-.403 1.322-1.128.924-1.49-.398-.362-1.535.543-1.904.933-6.152 6.573-9.49 19.26-9.647 19.845-.028.125-.042.25-.028.362a.972.972 0 00.724.821c.526.14 1.08-.167 1.222-.682.014-.028-.213-.766.085-1.964 0-.014.015-.027.015-.055l-1.691 1.072z" fill="#006C2B"/><path d="M35.802 45.314s-5.512 2.173-9.831-4.289c-4.305-6.462-6.238-7.687-6.238-7.687s-.042-.557 1.506-.25c1.55.306 10.983.069 13.142 4.177 2.174 4.108 1.947 6.88 1.421 8.05z" fill="#fff"/><path d="M37.635 47.152a.645.645 0 01-.298.655.674.674 0 01-.91-.209c-.014-.014-.014-.53-.425-1.24-1.421-2.353-5.13-7.547-8.894-9.775-.313-.181-1.066-.474-.867-.78.185-.306 1.08.07 1.392.25 5.172 3.05 9.718 10.529 9.931 10.863.029.083.057.167.071.236z" fill="#006C2B"/></g><defs><clipPath id="clip0_192_21737"><path fill="#fff" d="M0 0h70v84H0z"/></clipPath></defs></svg>
